!!!COM: Scarlatti, Domenico
!!!CDT: 1685///-1757///
!!!OTL: Sonata in C Major, K.514, L.1
!!!SCT: K. 514
!!!SCT: L. 001
**kern	**kern	**dynam
*staff2	*staff1	*staff1/2
*Icemba	*Icemba	*Icemba
*>[A,A,B,B]	*>[A,A,B,B]	*>[A,A,B,B]
*>norep[A,B]	*>norep[A,B]	*>norep[A,B]
*>A	*>A	*>A
*clefF4	*clefG2	*clefG2
*k[]	*k[]	*k[]
*C:	*C:	*C:
*M2/2	*M2/2	*M2/2
*MM192	*MM192	*MM192
=1-	=1-	=1-
2C/	8r	.
.	8cc'\L	f
.	8ee'\	.
.	8gg'\J	.
8r	2ccc\	.
(8g\L	.	.
8e\	.	.
8c\J)	.	.
=2	=2	=2
2CC/	8r	.
.	8cc'\L	.
.	8ee'\	.
.	8gg'\J	.
8r	2ccc\	.
(8g\L	.	.
8e\	.	.
8c\J)	.	.
=3	=3	=3
2CC/	8r	.
.	8cc'\L	.
.	8ee'\	.
.	8gg'\J	.
8r	2ccc\	.
(8g\L	.	.
8e\	.	.
8c\J)	.	.
=4	=4	=4
4FF'/	2aa\	.
4F\	.	.
4G\	(2dd\	.
4GG'/	.	.
=5	=5	=5
2CC/	8cc'\)	.
.	8cc'\L	.
.	8ee'\	.
.	8gg'\J	.
8r	2ccc^\	.
(8g\L	.	.
8e\	.	.
8c\J)	.	.
=6	=6	=6
4FF'/	2aa\	.
4F\	.	.
4G\	(2dd\	.
4GG/	.	.
=7	=7	=7
2CC/	4cc'\)	.
.	4ccc'\	.
2c\	(2e/	.
=8	=8	=8
4B'\	4d'/)	.
4BB'/	4ddd'\	.
2B\	(2d/	.
=9	=9	=9
4A'\	4c'/)	.
4AA'/	4ccc'\	.
2A\	(2c/	.
=10	=10	=10
4G'\	4B'/)	.
4GG'/	4bb'\	.
2G\	2B/	.
*clefG2	*	*
=11	=11	=11
4gg'\	([2ddd\	.
*clefF4	*	*
4GG'/	.	.
2DD/	12ddd\L]	.
.	12ccc\	.
.	12bb\J	.
.	12aa\L	.
.	12bb\	.
.	12ccc\J	.
*clefG2	*	*
=12	=12	=12
4gg'\	12bb\L	.
.	12ccc\	.
.	12ddd\J	.
*clefF4	*	*
4GG'/	([4ddd\)	.
2DD/	12ddd\L]	.
.	12ccc\	.
.	12bb\J	.
.	12aa\L	.
.	12bb\	.
.	12ccc\J	.
*clefG2	*	*
=13	=13	=13
4gg'\	12bb\L	.
.	12ccc\	.
.	12ddd\J)	.
*clefF4	*	*
4GG'/	([4ddd\	.
2DD/	12ddd\L]	.
.	12ddd\	.
.	12bb\J	.
.	12aa\L	.
.	12bb\	.
.	12ccc\J	.
=14	=14	=14
2GG/	12bb\L	.
.	12ccc\	.
.	12ddd\J)	.
.	(12ddd\L	.
.	12eee\	.
.	12fff#\J	.
2GGG/	12ggg\L	.
.	12fff#\	.
.	12eee\J	.
.	12ddd\L	.
.	12ccc\	.
.	12bb\J)	.
=15	=15	=15
2CC/	(12eee\L	.
.	12ddd\	.
.	12ccc\J	.
.	12bb\L	.
.	12aa\	.
.	12gg\J)	.
2C/	(12ccc\L	.
.	12bb\	.
.	12aa\J	.
.	12gg\L	.
.	12ff#\	.
.	12ee\J	.
=16	=16	=16
2D\	([4dd\)	.
.	16dd\LL]	.
.	16ee\	.
.	16ff#\	.
.	16gg\JJ	.
2DD/	4.aa\	.
.	16gg\LL	.
.	16aa\JJ	.
=17	=17	=17
2GG/	2gg\)	p
4G'\ (4fn'\	2r	.
4G'\ 4f'\)	.	.
=18	=18	=18
4G'\ 4e'\	2r	.
4G'\ 4e'\	.	.
4G'\ 4f#'\	(4.aa\	.
4G'\ 4f#'\	.	.
.	16gg\LL	.
.	16aa\JJ	.
=19	=19	=19
2G\ 2g\	2gg\)	.
4G'\ (4fn'\	2r	.
4G'\ 4f'\)	.	.
=20	=20	=20
4G'\ 4e'\	2r	.
4G'\ 4e'\	.	.
4G'\ 4f#'\	(4.aa\	<
4G'\ 4f#'\	.	.
.	16gg\LL	.
.	16aa\JJ	.
=21	=21	=21
2G\ 2g\	12gg\L)	f
.	(12ggg\	.
.	12ddd\J	.
.	12bb\L	.
.	12gg\	.
.	12dd\J	.
12r	8g'/)	.
(12d\L	.	.
.	8r	.
12B\J)	.	.
12r	8G'/	.
(12D/L	.	.
.	8r	.
12GG/J	.	.
=22	=22	=22
4CC'/)	2eee\	.
(4C/	.	.
4D/	2aa\	.
4DD/	.	.
=23	=23	=23
2GGG/)	2gg\	.
2GGG/	4g'\ 4ffn'\	p
.	4g'\ 4ff'\	.
=24	=24	=24
*	*^	*
2GGG/	4r	4g'\ (4ee'\	.
.	4r	4g'\ 4ee'\)	.
2GGG/	(2ff#/	4.cc\	.
.	.	16b\LL	.
.	.	16cc\JJ	.
=25	=25	=25	=25
2GGG/	2gg/)	2b\	.
2GGG/	4r	4g'\ (4ffn'\	.
.	4r	4g'\ 4ff'\)	.
=26	=26	=26	=26
2GGG/	4r	4g'\ (4ee'\	.
.	4r	4g'\ 4ee'\)	.
2GGG/	2ff#/	(4.cc\	<
.	.	16b\LL	.
.	.	16cc\JJ	.
*	*v	*v	*
=27	=27	=27
2GGG/	12b\) 12gg\L	f
.	(12gg\	.
.	12dd\J	.
.	12b/L	.
.	12g/	.
.	12d/J)	.
(12G\L	2r	.
12D\	.	.
12BB\J	.	.
12GG/L	.	.
12DD/	.	.
12GGG/J	.	.
=28	=28	=28
4CC'/)	2eee\	.
(4C/	.	.
4D/	2aa\	.
4DD/	.	.
=29	=29	=29
2GGG/)	12gg\L	.
.	12ggg\	.
.	12ddd\J	.
.	12bb\L	.
.	12gg\	.
.	12dd\J	.
12r	8g'/	.
(12d\L	.	.
.	8r	.
12B\J)	.	.
12r	8G'/	.
(12D/L	.	.
.	8r	.
12GG/J	.	.
=30	=30	=30
4CC'/)	2ee\	.
(4C/	.	.
4D/	2a/	.
4DD/	.	.
=31	=31	=31
1GGG)	1g	.
=32:|!|:	=32:|!|:	=32:|!|:
*>B	*>B	*>B
4G'\ (4g'\	1r	.
4G'\ 4g'\)	.	.
4G'\ (4fn'\	.	.
4G'\ 4f'\)	.	.
=33	=33	=33
4G'\ (4e'\	1r	.
4G'\ 4e'\)	.	.
4G'\ (4d'\	.	.
4G'\ 4d'\)	.	.
=34	=34	=34
2G'\ 2A'\ 2c#'\	(4aa\	p
.	2a\)	.
2r	.	.
.	4r	.
=35	=35	=35
4A'\ (4a'\	1r	.
4A'\ 4a'\)	.	.
4A'\ (4g'\	.	.
4A'\ 4g'\)	.	.
=36	=36	=36
4A'\ (4f'\	1r	.
4A'\ 4f'\)	.	.
4A'\ (4e'\	.	.
4A'\ 4e'\)	.	.
=37	=37	=37
2A\ 2B\ 2d#\	(4bb\	mf
.	2b\)	.
2r	.	.
.	4r	.
*clefG2	*	*
=38	=38	=38
(4c'/ 4cc'/	1r	.
4c'/) 4cc'/	.	.
(4c'/ 4b'/	.	.
4c'/) 4b'/	.	.
=39	=39	=39
(4c'/ 4a'/	1r	.
4c'/) 4a'/	.	.
(4c'/ 4g'/	.	.
4c'/) 4g'/	.	.
=40	=40	=40
(4c'/ 4d'/ 4f'/	(4ddd\	p
4c'/ 4d'/ 4f'/	2dd\)	.
4c'/ 4d'/ 4f'/	.	.
4c'/) 4d'/ 4f'/	4r	.
=41	=41	=41
(4B'/ 4d'/ 4f'/	(4ddd\	.
4B'/ 4d'/ 4f'/	2dd\)	.
4B'/ 4d'/ 4f'/	.	.
4B'/) 4d'/ 4f'/	4r	.
=42	=42	=42
(4A'/ 4d'/ 4f'/	(4ddd\	mf
4A'/ 4d'/ 4f'/	2dd\)	.
4A'/ 4d'/ 4f'/	.	.
4A'/) 4d'/ 4f'/	4r	.
=43	=43	=43
(4G'/ 4d'/ 4f'/	(4ddd\	>
4G'/ 4d'/ 4f'/	2dd\)	.
4G'/ 4d'/ 4f'/	.	.
4G'/) 4d'/ 4f'/	4r	.
=44	=44	=44
(4G'/ 4e'/	(4cc\	p
4G'/) 4e'/	4ccc\)	.
(4G'/ 4f#'/	(4cc\	.
4G'/) 4f#'/	4ccc\)	.
=45	=45	=45
(4G'/ 4g'/	(12bb\L	.
.	12aa\	.
.	12gg\J	.
4G'/) 4g'/	4gg'\)	.
(4G'/ 4f#'/	(4cc\	.
4G'/) 4f#'/	4ccc\)	.
=46	=46	=46
(4G'/ 4g'/	(12bb\L	.
.	12aa\	.
.	12gg\J	.
4G'/) 4g'/	4gg'\)	.
(4G'/ 4f#'/	(4cc\	.
4G'/) 4f#'/	4ccc\)	.
=47	=47	=47
2G/ 2g/	(12bb\L	.
.	12aa\	.
.	12gg\J	.
.	4gg'\)	.
2r	2r	.
=48	=48	=48
4cc'\	2ccc\ [2eee\	f
*clefF4	*	*
4CC'/	.	.
2GGG/	12eee/L]	.
.	(12ddd/	.
.	12eee/J	.
.	12fff\L	.
.	12eee\	.
.	12ddd\J	.
*clefG2	*	*
=49	=49	=49
4cc'\	2ccc\ [2eee\)	.
*clefF4	*	*
4CC'/	.	.
2GGG/	12eee\L]	.
.	(12ddd\	.
.	12eee\J	.
.	12fff\L	.
.	12eee\	.
.	12ddd\J	.
*clefG2	*	*
=50	=50	=50
4cc'\	2ccc\ [2eee\)	.
*clefF4	*	*
4CC'/	.	.
2GGG/	12eee\L]	.
.	(12ddd\	.
.	12eee\J	.
.	12fff\L	.
.	12eee\	.
.	12ddd\J	.
=51	=51	=51
2CC/	12eee\L	.
.	12ggg\	.
.	12fff\J	.
.	12eee\L	.
.	12ddd\	.
.	12ccc\J	.
2C/	12bb-\L	.
.	12ddd\	.
.	12ccc\J	.
.	12bb-\L	.
.	12aa\	.
.	12gg\J	.
=52	=52	=52
2FF/	12aa\L	.
.	12ccc\	.
.	12bbn\J	.
.	12aa\L	.
.	12gg\	.
.	12ff\J)	.
2F\	(12ff\L	.
.	12aa\	.
.	12gg\J	.
.	12ff\L	.
.	12ee\	.
.	12dd\J	.
=53	=53	=53
2G\	[4cc\	.
.	16cc\LL]	.
.	16dd\J	.
.	32cc\LL	.
.	32b\	.
.	32cc\	.
.	32dd\JJJ)	.
(2GG/	(4.dd\	.
.	8cc\)	.
=54	=54	=54
2CC/)	2cc\	p
*clefG2	*	*
(4c'/ 4b-'/	2r	.
4c'/) 4b-'/	.	.
=55	=55	=55
4c'/ 4a'/	2r	.
4c'/ 4a'/	.	.
4c'/ 4bn'/	(4.ddd\	.
4c'/ 4b'/	.	.
.	16ccc\LL	.
.	16ddd\JJ	.
=56	=56	=56
2c/ 2cc/	2ccc\)	.
(4c'/ 4b-'/	2r	.
4c'/) 4b-'/	.	.
=57	=57	=57
4c'/ 4a'/	2r	.
4c'/ 4a'/	.	.
4c'/ 4bn'/	(4.ddd\	<
4c'/ 4b'/	.	.
.	16ccc\LL	.
.	16ddd\JJ	.
=58	=58	=58
2c/ 2cc/	12ccc\)	f
.	(12ccc\L	.
.	12gg\J	.
.	12ee\L	.
.	12cc\	.
.	12g\J)	.
*clefF4	*	*
(12c\L	2r	.
12G\	.	.
12E\J	.	.
12C/L	.	.
12GG/	.	.
12CC/J	.	.
=59	=59	=59
4FF'/)	2aa\	.
(4F\	.	.
4G\	2dd\	.
4GG/	.	.
=60	=60	=60
2CC/)	2cc\	.
2CC/	4cc'\ 4bb-'\	p
.	4cc'\ 4bb-'\	.
=61	=61	=61
*	*^	*
2CC/	4r	4cc'\ (4aa'\	.
.	4r	4cc'\ 4aa'\)	.
2CC/	2bbn/	(4.ff\	.
.	.	16ee\LL	.
.	.	16ff\JJ	.
*	*v	*v	*
=62	=62	=62
2CC/	2ee\) 2ccc\	.
2CC/	4cc'\ (4bb-'\	.
.	4cc'\ 4bb-'\)	.
=63	=63	=63
*	*^	*
2CC/	4r	4cc'\ (4aa'\	.
.	4r	4cc'\ 4aa'\)	.
2CC/	2bbn/	(4.ff\	<
.	.	16ee\LL	.
.	.	16ff\JJ)	.
*	*v	*v	*
=64	=64	=64
2CC/	12ee\ 12ccc\	f
.	(12ccc\L	.
.	12gg\J	.
.	12ee\L	.
.	12cc\	.
.	12g\J)	.
(12c\L	2r	.
12G\	.	.
12E\J	.	.
12C/L	.	.
12GG/	.	.
12CC/J	.	.
=65	=65	=65
4FF'/)	2aa\	.
(4F\	.	.
4G\	2dd\	.
4GG/	.	.
=66	=66	=66
2CC/)	12cc\L	.
.	12ccc\	.
.	12gg\J	.
.	12ee\L	.
.	12cc\	.
.	12g\J	.
(12c\L	2r	.
12G\	.	.
12E\J	.	.
12C/L	.	.
12GG/	.	.
12CC/J	.	.
=67	=67	=67
4FF'/)	2a/	.
(4F\	.	.
4G\	2d/	.
4GG/	.	.
=68	=68	=68
1CC)	1c	.
==:|!	==:|!	==:|!
*-	*-	*-
!!!ENC: Kelly Leistikow and Craig Stuart Sapp
!!!END: 2005/06/30
